app/assets/images/heroicons/solid/code-bracket.svg

<svg width="24" height="24" viewBox="0 0 24 24" fill="none" xmlns="http://www.w3.org/2000/svg">
<path fill-rule="evenodd" clip-rule="evenodd" d="M14.4473 3.02637C14.847 3.13536 15.0826 3.54766 14.9736 3.94728L10.4736 20.4473C10.3646 20.8469 9.95228 21.0825 9.55266 20.9735C9.15304 20.8645 8.91744 20.4522 9.02643 20.0526L13.5264 3.55261C13.6354 3.15299 14.0477 2.91738 14.4473 3.02637ZM16.7197 6.21961C17.0126 5.92672 17.4874 5.92672 17.7803 6.21961L23.0303 11.4696C23.3232 11.7625 23.3232 12.2374 23.0303 12.5303L17.7803 17.7803C17.4874 18.0732 17.0126 18.0732 16.7197 17.7803C16.4268 17.4874 16.4268 17.0125 16.7197 16.7196L21.4393 11.9999L16.7197 7.28027C16.4268 6.98738 16.4268 6.51251 16.7197 6.21961ZM7.28033 6.21961C7.57322 6.51251 7.57322 6.98738 7.28033 7.28027L2.56066 11.9999L7.28033 16.7196C7.57322 17.0125 7.57322 17.4874 7.28033 17.7803C6.98744 18.0732 6.51256 18.0732 6.21967 17.7803L0.96967 12.5303C0.676777 12.2374 0.676777 11.7625 0.96967 11.4696L6.21967 6.21961C6.51256 5.92672 6.98744 5.92672 7.28033 6.21961Z" fill="#0F172A"/>
</svg>

<svg xmlns="http://www.w3.org/2000/svg" viewBox="0 0 24 24" fill="currentColor" aria-hidden="true" data-slot="icon">
  <path fill-rule="evenodd" d="M14.447 3.026a.75.75 0 0 1 .527.921l-4.5 16.5a.75.75 0 0 1-1.448-.394l4.5-16.5a.75.75 0 0 1 .921-.527ZM16.72 6.22a.75.75 0 0 1 1.06 0l5.25 5.25a.75.75 0 0 1 0 1.06l-5.25 5.25a.75.75 0 1 1-1.06-1.06L21.44 12l-4.72-4.72a.75.75 0 0 1 0-1.06Zm-9.44 0a.75.75 0 0 1 0 1.06L2.56 12l4.72 4.72a.75.75 0 0 1-1.06 1.06L.97 12.53a.75.75 0 0 1 0-1.06l5.25-5.25a.75.75 0 0 1 1.06 0Z" clip-rule="evenodd"/>
</svg>
